X:163
T:Little Fanny's love
O:No 163 William Clarke of Feltwell
M:2/4
L:1/8
K:D
N:No time sig in MS
b|affe|dedA|BdAd| BdAb|affe|dedf| eaa^g| a2-a:||
:a|bgge|fgaf|geec|defd|BdAd| BdAb| afef| d2 d:||

